X: 41400
T: Twenty Years On
R: waltz
M: 3/4
K: Gmajor
D2|:B3c AB|G2D4|G3B cB|A4 AG|
F3G FE|D4d2|1 d3e cd|B4D2:|2 d3B cA|G6||
|:B3DAF|G4d2|g3d cB|B2A4|
A3B AG|F4d2|1 e3d ^cd|B6:|2 d3B cA|G6||

